!!!OTL: Der Jaeger im Tannenholz Es wollt ein Jaeger jagen,
!!!ARE: Europa, Suedosteuropa, Jugoslavija, Batschka, Vinkovci, Neudorf
!!!ARD1: Europa%Suedosteuropa%Slovensko@Batschka#Vinkovci:Neudorf!~
!!!ARL1: 48.95/20.56!~
!!!ARD2: Europa%Suedosteuropa%Jugoslavije@Batschka#Vinkovci:Neudorf!~
!!!ARL2: 44.98/20.80!~
!!!ARD3: Europa%Suedosteuropa%Hrvatska@Batschka#Vinkovci:
!!!ARL3: 45.28/18.80:
!!!YOR: 7, S. 171
!!    1938 aufgezeichnet
!!!SCT: Q0151C
!!!YEM: Copyright 1995, estate of Helmut Schaffrath.
**kern
*ICvox
*Ivox
*M6/8
*k[]
*C:
{8e
=1
4e
8e
4f
8e
=2
4.e
4d}
{8a
=3
4a
8g
8d
8e
8f
=4
4.e
4r}
{16e
16e
=5
8c
8e
8g
4cc
8dd
=6
4cc
8a
4b}
{8a
=7
8g
8g
8d
4f
8e
=8
4.c
4r}
{16e
16e
=9
8c
8e
8g
4cc
8dd
=10
4cc
8a
4b}
{8a
=11
8g
8g
8d
4f
8e
=12
4.c
4r}
==
!!!AGN: Ballade, abgewiesener Freier, Abschied
!!!ONB: ESAC (Essen Associative Code) Database: BALLADE
!!!AMT: compound duple
!!!AIN: vox
!!!EED: Helmut Schaffrath
!!!EEV: 1.0
*-
